X:460
T:Polska
C:Erik Ronström
R:Polska
Z:E R 2008-09-23
M:3/4
L:1/16
K:Am
a4 a2^ga e4|f4 f2ed e4|A^GAB cBcd e2g2|f2ed d2e2 e4|
a2g2 g2f2 e2d2|g3f e2de c4|f3e d2c2 B2A2|^GABG A8:|
|:a2A2 b2A2 c'2A2|c'2ba b2a^g a2b2|e6 g2 g2f2|f2ed d2e2 e4|
a2g2 g2f2 e2d2|g3f e2de c4|f3e d2c2 B2A2|^GABG A8:|
(:musicend:)

(:music:)
